dist/images/src/test.svg

<svg width="46" height="60" viewBox="0 0 46 60" fill="none" xmlns="http://www.w3.org/2000/svg">
<path fill-rule="evenodd" clip-rule="evenodd" d="M7.97864 0C5.21722 0 2.97864 2.23853 2.97864 5V55C2.97864 57.7615 5.21722 60 7.97864 60H30.9076C32.2336 60 33.5054 59.4731 34.4431 58.5356L41.5142 51.4644C42.4519 50.5269 42.9786 49.2551 42.9786 47.929V5C42.9786 2.23853 40.7401 0 37.9786 0H7.97864ZM9.97864 58C7.21722 58 4.97864 55.7615 4.97864 53V7C4.97864 4.23853 7.21722 2 9.97864 2H35.9786C38.7401 2 40.9786 4.23853 40.9786 7V47.1006C40.9786 47.4048 40.9509 47.7061 40.8969 48.0012H31.9502C31.3979 48.0012 30.9502 48.449 30.9502 49.0012V57.9236C30.6646 57.9741 30.3732 58 30.0791 58H9.97864ZM32.9725 57.0779C33.2 56.9165 33.4149 56.7354 33.6146 56.5356L39.5142 50.636C39.712 50.438 39.8916 50.2253 40.0519 50.0002L33.9532 50.001C33.3998 50.0012 32.9517 50.4507 32.9534 51.0042L32.9725 57.0779ZM19.9786 11C19.9786 10.4478 20.4264 10 20.9786 10H34.9786C35.5309 10 35.9786 10.4478 35.9786 11C35.9786 11.5522 35.5309 12 34.9786 12H20.9786C20.4264 12 19.9786 11.5522 19.9786 11ZM19.9786 19.0005C19.4264 19.0005 18.9786 19.4482 18.9786 20.0005C18.9786 20.5527 19.4264 21.0005 19.9786 21.0005H34.9786C35.5309 21.0005 35.9786 20.5527 35.9786 20.0005C35.9786 19.4482 35.5309 19.0005 34.9786 19.0005H19.9786ZM18.9786 30C18.9786 29.4478 19.4264 29 19.9786 29H34.9786C35.5309 29 35.9786 29.4478 35.9786 30C35.9786 30.5522 35.5309 31 34.9786 31H19.9786C19.4264 31 18.9786 30.5522 18.9786 30ZM19.9786 38.9985C19.4264 38.9985 18.9786 39.4463 18.9786 39.9985C18.9786 40.5508 19.4264 40.9985 19.9786 40.9985H34.9786C35.5309 40.9985 35.9786 40.5508 35.9786 39.9985C35.9786 39.4463 35.5309 38.9985 34.9786 38.9985H19.9786ZM12.1002 13.6799L12.1069 13.6868C12.1558 13.7356 12.2083 13.7783 12.2638 13.8149C12.652 14.0713 13.1794 14.0286 13.5212 13.6868L19.178 8.03003C19.5685 7.6394 19.5685 7.00635 19.178 6.61572C18.7875 6.22534 18.1543 6.22534 17.7638 6.61572L12.8141 11.5654L10.6927 9.44409C10.3022 9.05371 9.66907 9.05371 9.27856 9.44409C8.888 9.83472 8.888 10.4678 9.27856 10.8584L12.1002 13.6799ZM10.9857 18.0161H14.9857V22.0161H10.9857V18.0161ZM8.98566 18.0161C8.98566 16.9116 9.8811 16.0161 10.9857 16.0161H14.9857C16.0902 16.0161 16.9857 16.9116 16.9857 18.0161V22.0161C16.9857 23.1206 16.0902 24.0161 14.9857 24.0161H10.9857C9.8811 24.0161 8.98566 23.1206 8.98566 22.0161V18.0161ZM14.9857 28H10.9857V32H14.9857V28ZM10.9857 26C9.8811 26 8.98566 26.8955 8.98566 28V32C8.98566 33.1045 9.8811 34 10.9857 34H14.9857C16.0902 34 16.9857 33.1045 16.9857 32V28C16.9857 26.8955 16.0902 26 14.9857 26H10.9857ZM10.9935 37.9985H14.9935V41.9985H10.9935V37.9985ZM8.99347 37.9985C8.99347 36.894 9.88892 35.9985 10.9935 35.9985H14.9935C16.098 35.9985 16.9935 36.894 16.9935 37.9985V41.9985C16.9935 43.103 16.098 43.9985 14.9935 43.9985H10.9935C9.88892 43.9985 8.99347 43.103 8.99347 41.9985V37.9985ZM18.9786 50.0005C18.9786 49.4482 19.4264 49.0005 19.9786 49.0005H27.9786C28.5309 49.0005 28.9786 49.4482 28.9786 50.0005C28.9786 50.5527 28.5309 51.0005 27.9786 51.0005H19.9786C19.4264 51.0005 18.9786 50.5527 18.9786 50.0005ZM10.9935 48.0005H14.9935V52.0005H10.9935V48.0005ZM8.99347 48.0005C8.99347 46.896 9.88892 46.0005 10.9935 46.0005H14.9935C16.098 46.0005 16.9935 46.896 16.9935 48.0005V52.0005C16.9935 53.105 16.098 54.0005 14.9935 54.0005H10.9935C9.88892 54.0005 8.99347 53.105 8.99347 52.0005V48.0005Z" fill="#5528FF"/>
</svg>

<svg width="46" height="60" fill="none" xmlns="http://www.w3.org/2000/svg"><path fill-rule="evenodd" clip-rule="evenodd" d="M7.979 0a5 5 0 00-5 5v50a5 5 0 005 5h22.929a5 5 0 003.535-1.464l7.071-7.072a5 5 0 001.465-3.535V5a5 5 0 00-5-5h-30zm2 58a5 5 0 01-5-5V7a5 5 0 015-5h26a5 5 0 015 5v40.1a5 5 0 01-.082.901H31.95a1 1 0 00-1 1v8.923c-.285.05-.577.076-.87.076H9.978zm22.993-.922a4.99 4.99 0 00.643-.542l5.9-5.9c.197-.198.377-.41.537-.636l-6.099.001a1 1 0 00-1 1.003l.02 6.074zM19.98 11a1 1 0 011-1h14a1 1 0 010 2h-14a1 1 0 01-1-1zm0 8a1 1 0 000 2h15a1 1 0 000-2h-15zm-1 11a1 1 0 011-1h15a1 1 0 010 2h-15a1 1 0 01-1-1zm1 8.998a1 1 0 000 2h15a1 1 0 100-2h-15zM12.1 13.68l.007.007a1 1 0 001.414 0l5.657-5.657a1 1 0 00-1.414-1.414l-4.95 4.95-2.121-2.122a1 1 0 00-1.414 1.414L12.1 13.68zm-1.114 4.336h4v4h-4v-4zm-2 0a2 2 0 012-2h4a2 2 0 012 2v4a2 2 0 01-2 2h-4a2 2 0 01-2-2v-4zm6 9.984h-4v4h4v-4zm-4-2a2 2 0 00-2 2v4a2 2 0 002 2h4a2 2 0 002-2v-4a2 2 0 00-2-2h-4zm.007 11.998h4v4h-4v-4zm-2 0a2 2 0 012-2h4a2 2 0 012 2v4a2 2 0 01-2 2h-4a2 2 0 01-2-2v-4zm9.986 12.003a1 1 0 011-1h8a1 1 0 110 2h-8a1 1 0 01-1-1zm-7.986-2h4v4h-4v-4zm-2 0a2 2 0 012-2h4a2 2 0 012 2v4a2 2 0 01-2 2h-4a2 2 0 01-2-2v-4z" fill="#5528FF"/></svg>
